TGraphMultiErrors/Y0.svg

<svg xmlns="http://www.w3.org/2000/svg" viewBox="0 0 1200 800" preserveAspectRatio="none" width="1200" height="800">
 <path d="M0,0H1200V800H0Z" style="fill: white;"></path>
 <g>
  <g transform="translate(120,80)">
   <path d="M0,0H960V640H0Z" style="fill: white; stroke: black; stroke-width: 1;"></path>
   <svg x="0" y="0" overflow="hidden" width="960" height="640" viewBox="0 0 960 640">
    <g>
     <g>
      <path d="M128,490a4,4,0,1,0,8,0a4,4,0,1,0,-8,0zM302,296a4,4,0,1,0,8,0a4,4,0,1,0,-8,0zM476,102a4,4,0,1,0,8,0a4,4,0,1,0,-8,0zM650,393a4,4,0,1,0,8,0a4,4,0,1,0,-8,0zM824,199a4,4,0,1,0,8,0a4,4,0,1,0,-8,0z" style="stroke: black; fill: black;"></path>
     </g>
     <g>
      <g transform="translate(306,296)">
       <path style="stroke: #ff0000; stroke-width: 1; fill: none;" d="M0,0H-52l3,5m0,-10l-3,5M0,0H52l-3,5m0,-10l3,5M0,0V48l-5,-3m10,0l-5,3M0,0V-97l-5,3m10,0l-5,-3"></path>
      </g>
      <g transform="translate(480,102)">
       <path style="stroke: #ff0000; stroke-width: 1; fill: none;" d="M0,0H-52l3,5m0,-10l-3,5M0,0H52l-3,5m0,-10l3,5M0,0V97l-5,-3m10,0l-5,3M0,0V-48l-5,3m10,0l-5,-3"></path>
      </g>
      <g transform="translate(654,393)">
       <path style="stroke: #ff0000; stroke-width: 1; fill: none;" d="M0,0H-52l3,5m0,-10l-3,5M0,0H52l-3,5m0,-10l3,5M0,0V48l-5,-3m10,0l-5,3M0,0V-97l-5,3m10,0l-5,-3"></path>
      </g>
      <g transform="translate(828,199)">
       <path style="stroke: #ff0000; stroke-width: 1; fill: none;" d="M0,0H-52l3,5m0,-10l-3,5M0,0H52l-3,5m0,-10l3,5M0,0V97l-5,-3m10,0l-5,3M0,0V-48l-5,3m10,0l-5,-3"></path>
      </g>
     </g>
     <g>
      <g transform="translate(306,296)">
       <path style="stroke: #0000ff; stroke-width: 1; fill: none;" d="M-52,0m2,3h-2v-6h2M52,0m-2,3h2v-6h-2M0,39m-3,-2v2h6v-2M0,-68m-3,2v-2h6v2"></path>
      </g>
      <g transform="translate(480,102)">
       <path style="stroke: #0000ff; stroke-width: 1; fill: none;" d="M-52,0m2,3h-2v-6h2M52,0m-2,3h2v-6h-2M0,78m-3,-2v2h6v-2M0,-58m-3,2v-2h6v2"></path>
      </g>
      <g transform="translate(654,393)">
       <path style="stroke: #0000ff; stroke-width: 1; fill: none;" d="M-52,0m2,3h-2v-6h2M52,0m-2,3h2v-6h-2M0,29m-3,-2v2h6v-2M0,-39m-3,2v-2h6v2"></path>
      </g>
      <g transform="translate(828,199)">
       <path style="stroke: #0000ff; stroke-width: 1; fill: none;" d="M-52,0m2,3h-2v-6h2M52,0m-2,3h2v-6h-2M0,116m-3,-2v2h6v-2M0,-78m-3,2v-2h6v2"></path>
      </g>
     </g>
    </g>
   </svg>
   <g>
    <g transform="translate(0,640)">
     <path d="M0,0h960M28,-12v12m35,-12v12m34,-12v12m35,-24v24m35,-12v12m35,-12v12m35,-12v12m34,-12v12m35,-24v24m35,-12v12m35,-12v12m34,-12v12m35,-12v12m35,-24v24m35,-12v12m35,-12v12m34,-12v12m35,-12v12m35,-24v24m35,-12v12m34,-12v12m35,-12v12m35,-12v12m35,-24v24m35,-12v12m34,-12v12m35,-12v12" style="stroke: black; stroke-width: 1;"></path>
     <g font-family="Arial" font-size="28" space="preserve" fill="black" text-anchor="middle">
      <text dy=".8em" transform="translate(132,6)">
       0
      </text>
      <text dy=".8em" transform="translate(306,6)">
       1
      </text>
      <text dy=".8em" transform="translate(480,6)">
       2
      </text>
      <text dy=".8em" transform="translate(654,6)">
       3
      </text>
      <text dy=".8em" transform="translate(828,6)">
       4
      </text>
     </g>
    </g>
    <g>
     <path d="M0,0v640M18,625h-18m18,-19h-18m36,-19h-36m18,-20h-18m18,-19h-18m18,-20h-18m18,-19h-18m36,-19h-36m18,-20h-18m18,-19h-18m18,-19h-18m18,-20h-18m36,-19h-36m18,-20h-18m18,-19h-18m18,-19h-18m18,-20h-18m36,-19h-36m18,-20h-18m18,-19h-18m18,-19h-18m18,-20h-18m36,-19h-36m18,-20h-18m18,-19h-18m18,-19h-18m18,-20h-18m36,-19h-36m18,-20h-18m18,-19h-18m18,-19h-18m18,-20h-18m36,-19h-36" style="stroke: black; stroke-width: 1;"></path>
     <g font-family="Arial" font-size="28" space="preserve" fill="black" text-anchor="end">
      <text dy=".4em" transform="translate(-4,587)">
       -1
      </text>
      <text dy=".4em" transform="translate(-4,490)">
       0
      </text>
      <text dy=".4em" transform="translate(-4,393)">
       1
      </text>
      <text dy=".4em" transform="translate(-4,296)">
       2
      </text>
      <text dy=".4em" transform="translate(-4,199)">
       3
      </text>
      <text dy=".4em" transform="translate(-4,102)">
       4
      </text>
      <text dy=".4em" transform="translate(-4,5)">
       5
      </text>
     </g>
    </g>
   </g>
  </g>
  <g transform="translate(120,4)" font-family="Arial" font-size="40" space="preserve">
   <text fill="black" text-anchor="middle" dy=".8em" transform="translate(480)">
    TGraphMultiErrors Example
   </text>
  </g>
 </g>
</svg>

<svg xmlns="http://www.w3.org/2000/svg" viewBox="0 0 1200 800" preserveAspectRatio="none" width="1200" height="800">
 <path d="M0,0H1200V800H0Z" style="fill: white;"></path>
 <g>
  <g transform="translate(120,80)">
   <path d="M0,0H960V640H0Z" style="fill: white; stroke: black; stroke-width: 1;"></path>
   <svg x="0" y="0" overflow="hidden" width="960" height="640" viewBox="0 0 960 640">
    <g>
     <g>
      <path d="M128,490a4,4,0,1,0,8,0a4,4,0,1,0,-8,0zM302,296a4,4,0,1,0,8,0a4,4,0,1,0,-8,0zM476,102a4,4,0,1,0,8,0a4,4,0,1,0,-8,0zM650,393a4,4,0,1,0,8,0a4,4,0,1,0,-8,0zM824,199a4,4,0,1,0,8,0a4,4,0,1,0,-8,0z" style="stroke: black; fill: black;"></path>
     </g>
     <g>
      <g transform="translate(306,296)">
       <path style="stroke: #ff0000; stroke-width: 1; fill: none;" d="M0,0H-52l3,5m0,-10l-3,5M0,0H52l-3,5m0,-10l3,5M0,0V48l-5,-3m10,0l-5,3M0,0V-97l-5,3m10,0l-5,-3"></path>
      </g>
      <g transform="translate(480,102)">
       <path style="stroke: #ff0000; stroke-width: 1; fill: none;" d="M0,0H-52l3,5m0,-10l-3,5M0,0H52l-3,5m0,-10l3,5M0,0V97l-5,-3m10,0l-5,3M0,0V-48l-5,3m10,0l-5,-3"></path>
      </g>
      <g transform="translate(654,393)">
       <path style="stroke: #ff0000; stroke-width: 1; fill: none;" d="M0,0H-52l3,5m0,-10l-3,5M0,0H52l-3,5m0,-10l3,5M0,0V48l-5,-3m10,0l-5,3M0,0V-97l-5,3m10,0l-5,-3"></path>
      </g>
      <g transform="translate(828,199)">
       <path style="stroke: #ff0000; stroke-width: 1; fill: none;" d="M0,0H-52l3,5m0,-10l-3,5M0,0H52l-3,5m0,-10l3,5M0,0V97l-5,-3m10,0l-5,3M0,0V-48l-5,3m10,0l-5,-3"></path>
      </g>
     </g>
     <g>
      <g transform="translate(306,296)">
       <path style="stroke: #0000ff; stroke-width: 1; fill: none;" d="M-52,0m2,3h-2v-6h2M52,0m-2,3h2v-6h-2M0,39m-3,-2v2h6v-2M0,-68m-3,2v-2h6v2"></path>
      </g>
      <g transform="translate(480,102)">
       <path style="stroke: #0000ff; stroke-width: 1; fill: none;" d="M-52,0m2,3h-2v-6h2M52,0m-2,3h2v-6h-2M0,78m-3,-2v2h6v-2M0,-58m-3,2v-2h6v2"></path>
      </g>
      <g transform="translate(654,393)">
       <path style="stroke: #0000ff; stroke-width: 1; fill: none;" d="M-52,0m2,3h-2v-6h2M52,0m-2,3h2v-6h-2M0,29m-3,-2v2h6v-2M0,-39m-3,2v-2h6v2"></path>
      </g>
      <g transform="translate(828,199)">
       <path style="stroke: #0000ff; stroke-width: 1; fill: none;" d="M-52,0m2,3h-2v-6h2M52,0m-2,3h2v-6h-2M0,116m-3,-2v2h6v-2M0,-78m-3,2v-2h6v2"></path>
      </g>
     </g>
    </g>
   </svg>
   <g>
    <g transform="translate(0,640)">
     <path d="M0,0h960M28,-12V0M63,-12V0M97,-12V0M132,-24V0M167,-12V0M202,-12V0M237,-12V0M271,-12V0M306,-24V0M341,-12V0M376,-12V0M410,-12V0M445,-12V0M480,-24V0M515,-12V0M550,-12V0M584,-12V0M619,-12V0M654,-24V0M689,-12V0M723,-12V0M758,-12V0M793,-12V0M828,-24V0M863,-12V0M897,-12V0M932,-12V0" style="stroke: black; stroke-width: 1;"></path>
     <g font-family="Arial" font-size="28" space="preserve" fill="black" text-anchor="middle">
      <text dy=".8em" transform="translate(132,6)">
       0
      </text>
      <text dy=".8em" transform="translate(306,6)">
       1
      </text>
      <text dy=".8em" transform="translate(480,6)">
       2
      </text>
      <text dy=".8em" transform="translate(654,6)">
       3
      </text>
      <text dy=".8em" transform="translate(828,6)">
       4
      </text>
     </g>
    </g>
    <g>
     <path d="M0,0v640M18,625H0M18,606H0M36,587H0M18,567H0M18,548H0M18,528H0M18,509H0M36,490H0M18,470H0M18,451H0M18,432H0M18,412H0M36,393H0M18,373H0M18,354H0M18,335H0M18,315H0M36,296H0M18,276H0M18,257H0M18,238H0M18,218H0M36,199H0M18,179H0M18,160H0M18,141H0M18,121H0M36,102H0M18,82H0M18,63H0M18,44H0M18,24H0M36,5H0" style="stroke: black; stroke-width: 1;"></path>
     <g font-family="Arial" font-size="28" space="preserve" fill="black" text-anchor="end">
      <text dy=".4em" transform="translate(-4,587)">
       -1
      </text>
      <text dy=".4em" transform="translate(-4,490)">
       0
      </text>
      <text dy=".4em" transform="translate(-4,393)">
       1
      </text>
      <text dy=".4em" transform="translate(-4,296)">
       2
      </text>
      <text dy=".4em" transform="translate(-4,199)">
       3
      </text>
      <text dy=".4em" transform="translate(-4,102)">
       4
      </text>
      <text dy=".4em" transform="translate(-4,5)">
       5
      </text>
     </g>
    </g>
   </g>
  </g>
  <g transform="translate(120,4)" font-family="Arial" font-size="40" space="preserve">
   <text fill="black" text-anchor="middle" dy=".8em" transform="translate(480)">
    TGraphMultiErrors Example
   </text>
  </g>
 </g>
</svg>
